X:1
T:Moving In Old Decency
R:Reel
S:Mhac Conroy
Z:Tracy Kingsley <c-tracy.kingsley@wcom.com> 2001-10-4
M:C|
K:Edor
Beed Beed|Beed ~B2 AG|FAdA FAdA|FAdA BAFA|
Beed Beed|Beed B2 AF|G2 GF GBdB|AGFG EFGA:|
B2 ef edBA|(3Bcd ef gefe|d2 ec dcBA|(3Bcd ef gfed|
Beef  edBA|(3Bcd ef gedB|G2 GF GBdB|1 AGFG EFGA:|2 AGFG E4||
